X:2
T:Theme from The Office
Z:Thrimlion
Q:1/4=180
M:4/4
L:1/4
K:C
G/2 D/2 G/2 z G/2 D/2| ^F/2 D/2 ^F/2 z ^F/2 D/2| E/2 G/2 E/2 z E/2 G/2| c c c B/2 A/2 B/2 |G2 g2| ^f g ^f d| e4| c c c B/2 A/2 B/2| G G g2| ^f/2 g/2 a/2 ^f/2| e z d/2 e/2 d/2 B/2| c c c B/2 A/2 B/2 |G2 g2| ^f g ^f d| e4| c c c B/2 A/2 B/2| G G g2| ^f/2 g/2 a/2 ^f/2| e z d/2 e/2 d/2 B/2| c c c B/2 A/2 B/2 |G2 g2| ^f g ^f d| e4| c c c B/2 A/2 B/2| G G g2| ^f/2 g/2 a/2 ^f/2| e z d/2 e/2 d/2 B/2| c c c B/2 A/2 B/2| G4| A/2 B/2 c/2 d/2
e/2 d/2 g/2 |
